texture_12.svg

<?xml version="1.0" encoding="UTF-8"?>
<svg width="1024" height="1024" version="1.1" xmlns="http://www.w3.org/2000/svg">
 <path d="m256 1024h-256v-1024h1024v1024h-256v-768h-512v768" fill="#1e1e1e" fill-opacity=".50196"/>
 <path d="m768 1024v-768h-512v768m40 0v-728h432v728" fill="none" stroke="#fff" stroke-miterlimit="3" stroke-width="4"/>
 <g fill="#fff">
  <path d="m1022 128v1h-125v127h125v1h-125v127h125v1h-125v125h-1v-125h-127v125h-1v-125h-127v125h-1v-125h-126v-1h126v-127h-126v-1h126v-127h-126v-1h126v-126h1v126h127v-126h1v126h127v-126h1v126h125m-253 129v127h127v-127h-127m-1 0h-127v127h127v-127m1-1h127v-127h-127v127m-1 0v-127h-127v127h127m128 258.05h1v125.95h125v1h-125v127h125v1h-125v127h125v1h-125v125h-1v-125h-127v125h-1v-125h-127v125h-1v-125h-126v-1h126v-127h-126v-1h126v-127h-126v-1h126v-125.95h1v125.95h127v-125.95h1v125.95h127v-125.95m-127 253.95h127v-127h-127v127m-1 0v-127h-127v127h127m1 1v127h127v-127h-127m-259-641v1h-125v127h125v1h-125v127h125v1h-125v125h-1v-125h-127v125h-1v-125h-127v125h-1v-125h-126v-1h126v-127h-126v-1h126v-127h-126v-1h126v-126h1v126h127v-126h1v126h127v-126h1v126h125m-126 256v-127h-127v127h127m0-255h-127v127h127v-127m-128 128h-127v127h127v-127m-127-128v127h127v-127h-127m127 385h1v126h127v-126h1v126h125v1h-125v127h125v1h-125v127h125v1h-125v125h-1v-125h-127v125h-1v-125h-127v125h-1v-125h-126v-1h126v-127h-126v-1h126v-127h-126v-1h126v-126h1v126h127v-126m0 254v-127h-127v127h127m1 0h127v-127h-127v127m-1 1h-127v127h127v-127m1 0v127h127v-127h-127m511 0h-127v127h127v-127" fill-opacity=".10196"/>
  <path d="m1022 129v-127h-1020v1020h1020v-893m-1022-129h1024v1024h-1024v-1024"/>
  <path d="m514 128v382h508v4.05h-382l-126-0.05v508h-4v-508h-508v-4h508v-508h4v126" fill-opacity=".50196"/>
  <path d="m173 102.4 2.65-3q0.8-1.1 0.8-2.15 0-1.1-0.7-1.8t-1.75-0.7q-2 0-3.75 2.85l-3.75-2.25q1.45-2.25 3.2-3.4 1.75-1.2 4.5-1.2 2.7 0 4.75 1.7 2.05 1.75 2.05 4.7 0 1.65-0.85 3.15-0.8 1.45-3 3.75l-3.8 3.95h8.25v4.2h-14.75v-3.5l6.15-6.3m19.6 0.75v-3.65h4.5v3.65h2.4v4.05h-2.4v5h-4.5v-5h-8.4v-3.6l7.45-12.4h5.1l-7.1 11.95h2.95m-75.95-42.15-2.8-5.65h-3.3v5.65h-6.25v-21.05h9.85q4.25 0.05 6.55 1.95 2.3 1.95 2.3 5.55 0 2.35-0.9 4-0.9 1.7-2.65 2.7l4.3 6.85h-7.1m-6.1-10.45h3.6q1.4 0 2.15-0.75t0.75-2.2q0-1.35-0.75-2.1t-2.15-0.75h-3.6v5.8m-19.95-5.55q-1.4 0-2.55 0.7t-1.85 1.95q-0.75 1.25-0.75 2.85t0.75 2.85q0.7 1.25 1.85 2 1.15 0.7 2.55 0.7t2.55-0.7q1.1-0.75 1.75-2 0.7-1.25 0.7-2.85t-0.7-2.85q-0.65-1.25-1.75-1.95-1.15-0.7-2.55-0.7m-0.05-5.2q3.3 0 5.9 1.4 2.55 1.35 4 3.75 1.5 2.4 1.55 5.5-0.05 3.15-1.55 5.55-1.45 2.45-4 3.85-2.6 1.4-5.9 1.45-3.35-0.05-5.95-1.45-2.55-1.4-4-3.8-1.5-2.45-1.55-5.6 0.05-3.1 1.55-5.5 1.45-2.4 4-3.75 2.6-1.4 5.95-1.4m2.4 63.35v-3.65h4.5v3.65h2.4v4.05h-2.4v5h-4.5v-5h-8.4v-3.6l7.45-12.4h5.1l-7.1 11.95h2.95m25.3-4.5 4.75-4.85 2.6 2.65-4.7 4.85 4.75 4.85-2.6 2.7-4.8-4.9-4.75 4.9-2.65-2.7 4.8-4.85-4.8-4.85 2.65-2.65 4.75 4.85m14.3-7.45h8.5v21h-4.5v-17h-4v-4m18.7 5.35q-1 1.9-1 5.05t1 5.1q1 1.9 3.1 1.9t3.1-1.9q1-1.95 1-5.1t-1-5.05q-1-1.95-3.1-1.95t-3.1 1.95m3.1 15.9q-4.35 0-6.5-2.95t-2.15-7.9 2.15-7.9 6.5-2.95 6.5 2.95 2.15 7.9-2.15 7.9-6.5 2.95m-87.65-72.65q3.3 0 5.9 1.4 2.55 1.35 4 3.75 1.5 2.4 1.55 5.5-0.05 3.15-1.55 5.55-1.45 2.45-4 3.85-2.6 1.4-5.9 1.45-3.35-0.05-5.95-1.45-2.55-1.4-4-3.8-1.5-2.45-1.55-5.6 0.05-3.1 1.55-5.5 1.45-2.4 4-3.75 2.6-1.4 5.95-1.4m0.05 5.2q-1.4 0-2.55 0.7t-1.85 1.95q-0.75 1.25-0.75 2.85t0.75 2.85q0.7 1.25 1.85 2 1.15 0.7 2.55 0.7t2.55-0.7q1.1-0.75 1.75-2 0.7-1.25 0.7-2.85t-0.7-2.85q-0.65-1.25-1.75-1.95-1.15-0.7-2.55-0.7m-26.75-0.1v11.2h3.15q2.2 0 3.45-1.5 1.3-1.5 1.35-4.05-0.05-2.6-1.4-4.1-1.4-1.55-3.7-1.55h-2.85m-6.25-4.95h9.25q3.4 0.05 5.95 1.35 2.55 1.25 3.9 3.65 1.45 2.35 1.45 5.5 0 3.2-1.45 5.55-1.45 2.4-4 3.7-2.6 1.3-6.05 1.3h-9.05v-21.05m-0.85 51.25h8.5v21h-4.5v-17h-4v-4m21.8 21.25q-4.35 0-6.5-2.95t-2.15-7.9 2.15-7.9 6.5-2.95 6.5 2.95 2.15 7.9-2.15 7.9-6.5 2.95m-3.1-15.9q-1 1.9-1 5.05t1 5.1q1 1.9 3.1 1.9t3.1-1.9q1-1.95 1-5.1t-1-5.05q-1-1.95-3.1-1.95t-3.1 1.95m21.75 5.85 2.65-3q0.8-1.1 0.8-2.15 0-1.1-0.7-1.8t-1.75-0.7q-2 0-3.75 2.85l-3.75-2.25q1.45-2.25 3.2-3.4 1.75-1.2 4.5-1.2 2.7 0 4.75 1.7 2.05 1.75 2.05 4.7 0 1.65-0.85 3.15-0.8 1.45-3 3.75l-3.8 3.95h8.25v4.2h-14.75v-3.5l6.15-6.3"/>
 </g>
 <path d="m32 76h168" fill="none" stroke="#fff" stroke-miterlimit="3" stroke-width="2"/>
</svg>

<?xml version="1.0" encoding="UTF-8" standalone="no"?>
<svg
   version="1.1"
   id="svg22"
   sodipodi:docname="texture_12.svg"
   width="1024"
   height="1024"
   inkscape:version="1.1.2 (0a00cf5339, 2022-02-04)"
   xmlns:inkscape="http://www.inkscape.org/namespaces/inkscape"
   xmlns:sodipodi="http://sodipodi.sourceforge.net/DTD/sodipodi-0.dtd"
   xmlns="http://www.w3.org/2000/svg"
   xmlns:svg="http://www.w3.org/2000/svg">
  <sodipodi:namedview
     id="namedview24"
     pagecolor="#505050"
     bordercolor="#eeeeee"
     borderopacity="1"
     inkscape:pageshadow="0"
     inkscape:pageopacity="0"
     inkscape:pagecheckerboard="0"
     showgrid="false"
     inkscape:zoom="0.35591041"
     inkscape:cx="514.17433"
     inkscape:cy="613.91854"
     inkscape:window-width="1440"
     inkscape:window-height="831"
     inkscape:window-x="1280"
     inkscape:window-y="32"
     inkscape:window-maximized="1"
     inkscape:current-layer="g20" />
  <defs
     id="defs2" />
  <g
     id="g20">
    <path
       stroke="none"
       fill="#1e1e1e"
       fill-opacity="0.501961"
       d="M 256,1024 H 0 V 0 H 1024 V 1024 H 768 V 256 H 256 v 768"
       id="path6" />
    <path
       fill="none"
       stroke="#ffffff"
       stroke-width="4"
       stroke-linecap="butt"
       stroke-linejoin="miter"
       stroke-miterlimit="3"
       d="M 768,1024 V 256 H 256 v 768 m 40,0 V 296 h 432 v 728"
       id="path8" />
    <path
       stroke="none"
       fill="#ffffff"
       fill-opacity="0.101961"
       d="m 1022,128 v 1 H 897 v 127 h 125 v 1 H 897 v 127 h 125 v 1 H 897 v 125 h -1 V 385 H 769 v 125 h -1 V 385 H 641 v 125 h -1 V 385 H 514 v -1 H 640 V 257 H 514 v -1 H 640 V 129 H 514 v -1 H 640 V 2 h 1 V 128 H 768 V 2 h 1 V 128 H 896 V 2 h 1 v 126 h 125 M 769,257 V 384 H 896 V 257 H 769 m -1,0 H 641 V 384 H 768 V 257 m 1,-1 H 896 V 129 H 769 v 127 m -1,0 V 129 H 641 v 127 h 127 m 128,258.05 h 1 V 640 h 125 v 1 H 897 v 127 h 125 v 1 H 897 v 127 h 125 v 1 H 897 v 125 h -1 V 897 H 769 v 125 h -1 V 897 H 641 v 125 h -1 V 897 H 514 v -1 H 640 V 769 H 514 v -1 H 640 V 641 H 514 v -1 H 640 V 514.05 h 1 V 640 H 768 V 514.05 h 1 V 640 H 896 V 514.05 M 769,768 H 896 V 641 H 769 v 127 m -1,0 V 641 H 641 v 127 h 127 m 1,1 V 896 H 896 V 769 H 769 M 510,128 v 1 H 385 v 127 h 125 v 1 H 385 v 127 h 125 v 1 H 385 v 125 h -1 V 385 H 257 v 125 h -1 V 385 H 129 v 125 h -1 V 385 H 2 v -1 H 128 V 257 H 2 v -1 H 128 V 129 H 2 v -1 H 128 V 2 h 1 V 128 H 256 V 2 h 1 V 128 H 384 V 2 h 1 V 128 H 510 M 384,384 V 257 H 257 v 127 h 127 m 0,-255 H 257 V 256 H 384 V 129 M 256,257 H 129 V 384 H 256 V 257 M 129,129 V 256 H 256 V 129 H 129 m 127,385 h 1 V 640 H 384 V 514 h 1 v 126 h 125 v 1 H 385 v 127 h 125 v 1 H 385 v 127 h 125 v 1 H 385 v 125 h -1 V 897 H 257 v 125 h -1 V 897 H 129 v 125 h -1 V 897 H 2 v -1 H 128 V 769 H 2 v -1 H 128 V 641 H 2 v -1 H 128 V 514 h 1 V 640 H 256 V 514 m 0,254 V 641 H 129 v 127 h 127 m 1,0 H 384 V 641 H 257 v 127 m -1,1 H 129 V 896 H 256 V 769 m 1,0 V 896 H 384 V 769 H 257 m 511,0 H 641 V 896 H 768 V 769"
       id="path10" />
    <path
       stroke="none"
       fill="#ffffff"
       d="M 1022,129 V 128 2 H 897 896 769 768 641 640 514 510 385 384 257 256 129 128 2 v 126 1 127 1 127 1 125 4 126 1 127 1 127 1 125 h 126 1 127 1 127 1 125 4 126 1 127 1 127 1 125 V 897 896 769 768 641 640 514.05 510 385 384 257 256 129 M 0,0 H 1024 V 1024 H 0 V 0"
       id="path12" />
    <path
       stroke="none"
       fill="#ffffff"
       fill-opacity="0.501961"
       d="m 514,128 v 1 127 1 127 1 125 h 126 1 127 1 127 1 125 v 4.05 H 897 896 769 768 641 640 L 514,514 v 126 1 127 1 127 1 125 h -4 V 897 896 769 768 641 640 514 H 385 384 257 256 129 128 2 v -4 h 126 1 127 1 127 1 125 V 385 384 257 256 129 128 2 h 4 v 126"
       id="path14" />
    <path
       stroke="none"
       fill="#ffffff"
       d="m 173,102.4 2.65,-3 q 0.8,-1.1 0.8,-2.15 0,-1.1 -0.7,-1.8 -0.7,-0.7 -1.75,-0.7 -2,0 -3.75,2.85 l -3.75,-2.25 q 1.45,-2.25 3.2,-3.4 1.75,-1.2 4.5,-1.2 2.7,0 4.75,1.7 2.05,1.75 2.05,4.7 0,1.65 -0.85,3.15 -0.8,1.45 -3,3.75 l -3.8,3.95 h 8.25 v 4.2 h -14.75 v -3.5 l 6.15,-6.3 m 19.6,0.75 V 99.5 h 4.5 v 3.65 h 2.4 v 4.05 h -2.4 v 5 h -4.5 v -5 h -8.4 v -3.6 l 7.45,-12.4 h 5.1 l -7.1,11.95 h 2.95 M 116.65,61 l -2.8,-5.65 h -3.3 V 61 H 104.3 V 39.95 h 9.85 q 4.25,0.05 6.55,1.95 2.3,1.95 2.3,5.55 0,2.35 -0.9,4 -0.9,1.7 -2.65,2.7 l 4.3,6.85 h -7.1 m -6.1,-10.45 h 3.6 q 1.4,0 2.15,-0.75 0.75,-0.75 0.75,-2.2 0,-1.35 -0.75,-2.1 -0.75,-0.75 -2.15,-0.75 h -3.6 v 5.8 M 90.6,45 q -1.4,0 -2.55,0.7 -1.15,0.7 -1.85,1.95 -0.75,1.25 -0.75,2.85 0,1.6 0.75,2.85 0.7,1.25 1.85,2 1.15,0.7 2.55,0.7 1.4,0 2.55,-0.7 1.1,-0.75 1.75,-2 0.7,-1.25 0.7,-2.85 0,-1.6 -0.7,-2.85 Q 94.25,46.4 93.15,45.7 92,45 90.6,45 m -0.05,-5.2 q 3.3,0 5.9,1.4 2.55,1.35 4,3.75 1.5,2.4 1.55,5.5 -0.05,3.15 -1.55,5.55 -1.45,2.45 -4,3.85 -2.6,1.4 -5.9,1.45 -3.35,-0.05 -5.95,-1.45 -2.55,-1.4 -4,-3.8 -1.5,-2.45 -1.55,-5.6 0.05,-3.1 1.55,-5.5 1.45,-2.4 4,-3.75 2.6,-1.4 5.95,-1.4 m 2.4,63.35 V 99.5 h 4.5 v 3.65 h 2.4 v 4.05 h -2.4 v 5 h -4.5 v -5 h -8.4 v -3.6 L 92,91.2 h 5.1 L 90,103.15 h 2.95 m 25.3,-4.5 4.75,-4.85 2.6,2.65 -4.7,4.85 4.75,4.85 -2.6,2.7 -4.8,-4.9 -4.75,4.9 -2.65,-2.7 4.8,-4.85 -4.8,-4.85 2.65,-2.65 4.75,4.85 m 14.3,-7.45 h 8.5 v 21 h -4.5 v -17 h -4 v -4 m 18.7,5.35 q -1,1.9 -1,5.05 0,3.15 1,5.1 1,1.9 3.1,1.9 2.1,0 3.1,-1.9 1,-1.95 1,-5.1 0,-3.15 -1,-5.05 -1,-1.95 -3.1,-1.95 -2.1,0 -3.1,1.95 m 3.1,15.9 q -4.35,0 -6.5,-2.95 -2.15,-2.95 -2.15,-7.9 0,-4.95 2.15,-7.9 2.15,-2.95 6.5,-2.95 4.35,0 6.5,2.95 2.15,2.95 2.15,7.9 0,4.95 -2.15,7.9 -2.15,2.95 -6.5,2.95 M 66.7,39.8 q 3.3,0 5.9,1.4 2.55,1.35 4,3.75 1.5,2.4 1.55,5.5 -0.05,3.15 -1.55,5.55 -1.45,2.45 -4,3.85 -2.6,1.4 -5.9,1.45 -3.35,-0.05 -5.95,-1.45 -2.55,-1.4 -4,-3.8 -1.5,-2.45 -1.55,-5.6 0.05,-3.1 1.55,-5.5 1.45,-2.4 4,-3.75 2.6,-1.4 5.95,-1.4 m 0.05,5.2 q -1.4,0 -2.55,0.7 -1.15,0.7 -1.85,1.95 -0.75,1.25 -0.75,2.85 0,1.6 0.75,2.85 0.7,1.25 1.85,2 1.15,0.7 2.55,0.7 1.4,0 2.55,-0.7 1.1,-0.75 1.75,-2 0.7,-1.25 0.7,-2.85 0,-1.6 -0.7,-2.85 Q 70.4,46.4 69.3,45.7 68.15,45 66.75,45 M 40,44.9 v 11.2 h 3.15 q 2.2,0 3.45,-1.5 1.3,-1.5 1.35,-4.05 -0.05,-2.6 -1.4,-4.1 -1.4,-1.55 -3.7,-1.55 H 40 M 33.75,39.95 H 43 q 3.4,0.05 5.95,1.35 2.55,1.25 3.9,3.65 1.45,2.35 1.45,5.5 0,3.2 -1.45,5.55 -1.45,2.4 -4,3.7 Q 46.25,61 42.8,61 H 33.75 V 39.95 M 32.9,91.2 h 8.5 v 21 h -4.5 v -17 h -4 v -4 m 21.8,21.25 q -4.35,0 -6.5,-2.95 -2.15,-2.95 -2.15,-7.9 0,-4.95 2.15,-7.9 2.15,-2.95 6.5,-2.95 4.35,0 6.5,2.95 2.15,2.95 2.15,7.9 0,4.95 -2.15,7.9 -2.15,2.95 -6.5,2.95 m -3.1,-15.9 q -1,1.9 -1,5.05 0,3.15 1,5.1 1,1.9 3.1,1.9 2.1,0 3.1,-1.9 1,-1.95 1,-5.1 0,-3.15 -1,-5.05 -1,-1.95 -3.1,-1.95 -2.1,0 -3.1,1.95 m 21.75,5.85 2.65,-3 q 0.8,-1.1 0.8,-2.15 0,-1.1 -0.7,-1.8 -0.7,-0.7 -1.75,-0.7 -2,0 -3.75,2.85 l -3.75,-2.25 q 1.45,-2.25 3.2,-3.4 1.75,-1.2 4.5,-1.2 2.7,0 4.75,1.7 2.05,1.75 2.05,4.7 0,1.65 -0.85,3.15 -0.8,1.45 -3,3.75 L 73.7,108 h 8.25 v 4.2 H 67.2 v -3.5 l 6.15,-6.3"
       id="path16" />
    <path
       fill="none"
       stroke="#ffffff"
       stroke-width="2"
       stroke-linecap="butt"
       stroke-linejoin="miter"
       stroke-miterlimit="3"
       d="M 32,76 H 200"
       id="path18" />
  </g>
</svg>
